X:188
T:You're Welcome Home Royal Charlie (march)
B:NFID.089
188youre_w
S:JD
N:In the NF, the C's in measures 1 and 5 are sharp, as expected
from the key signature of D (actually A mix). I have flattened them
because I think they sound better as naturals. You can change them
back by deleting the = before the note. [BB]
L:1/8
M:C
R:march
Q:280
K:A=G
E2A2 ABcd|e2A2 B2A2|GAGF GABc|d2G2 dBAG|
E2A2 ABcd|e2f2 g2a2|g2e2 d2B2|1 A4 AGED:|2 A4 A2ag||
%B
e2a2a2 ga|b3a g2e2|d2ef g2a2|g2e2d2 cd|
e2a2a2 ga|b3a g2ed|c2e2 dcBc|1 A4 A2cd:|2 A4 G2AB||
%C
c2cB c2c2|cdef g2dc|B2G2 d2G2|BcdB GABG|
c2cB c2G2|cdef g2fg|a2e2 dcBc|1 A4A2B2:|2 A4 A4||

%%%

